X: 30423
M: 6/8
L: 1/8
K: A
e |\
a2e ecA | a2e ecA | cBA cde | dBB B2e |\
a2e ecA | a2e ecA | ABA AFE | EAA A2 :|
|: E |\
E<AA c2B | A<FA A<EG | A<BA ABc | dBB B<ed |\
c<BA c2B | A<FA A<EG | A<BA A<Bc | dBG A2 :|
K: G
|: D |\
e2g fdB | c2e dBG | AcA FDF | G3 "^FINE"G2 :|
d2D D2D | E3 D3 | dBG D2D | EFG D3 |\


